X:1
T:St. Sylvester, 87.87
T:John Bacchus Dykes, 1862
T:St. Sylvester, 87.87
T:Public Domain
C:John Bacchus Dykes, 1862
Z:Public Domain
%%score ( 1 2 ) ( 3 4 )
L:1/8
M:4/4
K:F
V:1 treble 
V:2 treble 
V:3 bass 
V:4 bass 
V:1
 [FA]3 [FA] [FA]2 [FA]2 | [EG]2 [FA]2 [FB]2 [Ec]2 | [FA]8 | [FA]3 [FA] [FA]2 [FA]2 | %4
 [FA]2 [FG]2 [EG]4- x8 | [EG]8 | F3 [DF] [CF]2 F2 | [FA]2 [Fc]2 (c2 B2) | [FA]8 | %9
 [FG]3 [FG] [FG]2 [FG]2 | [EA]2 [EG]2 F4 |] %11
V:2
 x8 | x8 | x8 | x8 | x16 | x8 | F3 F2 x3 | x4 F4 | x8 | x8 | x4 F4 |] %11
V:3
 [F,C]3 [F,C] [F,C]2 [F,A,]2 | [G,B,]2 [F,A,]2 [C,G,]4 | (A,4 C4) | [D,D]3 [D,D] [D,D]2 [D,C]2 | %4
 [G,=B,]2 [G,B,]2 C4 x8 | (G,4 B,4) | [F,A,]3 [F,B,] [F,A,]2 [F,A,]2 | [F,C]2 [F,_E]2 [B,,D]4 | %8
 (C4 A,4) | [G,=B,]3 [G,B,] [G,B,]2 [D,B,]2 | [C,C]2 [C,B,]2 [F,A,]4 |] %11
V:4
 x8 | x8 | F,8 | x8 | x4 C,12 | x8 | x8 | x8 | F,8 | x8 | x8 |] %11

